X:1
T:Advance, 10.10.12.10
T:Advance, 10.10.12.10
T:M. W. Stubbs, ca. 1902
T:Public Domain Courtesy of the Cyber Hymnal™
C:M. W. Stubbs, ca. 1902
Z:Public Domain
Z:Courtesy of the Cyber Hymnal™
%%score ( 1 2 ) ( 3 4 )
L:1/8
Q:1/4=110
M:4/4
K:Bb
V:1 treble 
V:2 treble 
V:3 bass 
V:4 bass 
V:1
 [DF]4 [DF]3 [DF] | [DB]2 [Fc]2 [Fd]4 | [Ff]4 [^Fd]3 [Fc] | [GB]6 z2 | [Gc]4 [Gd]2 [Ge]2 | %5
 [Gd]2 [Gc]2 [GB]4 | [FA]4 [DB]2 [=EG]2 | F6 z2 | [DF]4 [Fd]3 [Fc] | [FB]2 [FA]2 [EG]4 | %10
 [EG]4 [Ee]3 [Fd] | [Gc]2 [GB]2 [FA]4 | [Ff]4 [^Fd]3 [Fc] | [GB]2 [^FA]2 G4 | [Ee]4 [Ec]3 [EB] x2 | %15
 [DB]8 |] %16
V:2
 x8 | x8 | x8 | x8 | x8 | x8 | x8 | (F4 E2) x2 | x8 | x8 | x8 | x8 | x8 | x4 G4 | x10 | x8 |] %16
V:3
 [B,,B,]4 B,3 [A,B,] | [G,B,]2 [F,A,]2 [B,,B,]4 | [B,D]4 [A,C]3 [A,C] | D6 z2 | %4
 [E,C]4 [D,B,]2 [C,C]2 | [D,B,]2 [E,C]2 [=E,C]4 | [F,C]4 [C,D]2 [C,B,]2 | [F,A,]6 z2 | %8
 [B,,B,]4 [B,,B,]3 [C,B,] | [D,B,]2 [D,B,]2 B,4 | [C,C]4 [C,C]3 [D,=B,] | [E,C]2 [=E,C]2 C4 | %12
 [D,B,]4 [D,A,]3 [D,D] | [G,D]2 [D,C]2 [E,B,]4 | [E,C]4 (B,2 z) x3 | [B,,B,]8 |] %16
V:4
 x4 B,3 x | x8 | x8 | (G,4 F,2) x2 | x8 | x8 | x8 | x8 | x8 | x4 (E,2 D,2) | x8 | x4 (F,2 _E,2) | %12
 x8 | x8 | x4 F,3 (B,2 F,) | x8 |] %16

